;FLAVOR:Marlin
;TIME:6026
;Filament used: 3.46751m
;Layer height: 0.2
;MINX:72.5
;MINY:81.943
;MINZ:0.2
;MAXX:147.499
;MAXY:138.061
;MAXZ:80
;TARGET_MACHINE.NAME:Creality Ender-3 V3 SE
;Generated with Cura_SteamEngine 5.6.0
M140 S60
M105
M190 S60
M104 S210
M105
M109 S210
M82 ;absolute extrusion mode
M220 S100 ;Reset Feedrate
M221 S100 ;Reset Flowrate

G28 ;Home

M420 S1; Enable mesh leveling

G92 E0 ;Reset Extruder
G1 Z2.0 F3000 ;Move Z Axis up
G1 X10.1 Y20 Z0.28 F5000.0 ;Move to start position
M109 S[material_print_temperature_layer_0]
G1 X10.1 Y145.0 Z0.28 F1500.0 E15 ;Draw the first line
G1 X10.4 Y145.0 Z0.28 F5000.0 ;Move to side a little
G1 X10.4 Y20 Z0.28 F1500.0 E30 ;Draw the second line
G92 E0  ;Reset Extruder
G1 E-1.0000 F1800 ;Retract a bit
G1 Z2.0 F3000 ;Move Z Axis up
G1 E0.0000 F1800 

G92 E0
G92 E0
G1 F2400 E-0.8
;LAYER_COUNT:400
;LAYER:0
M107
G0 F9000 X77.999 Y84.998 Z0.2
;TYPE:SKIRT
G1 F2400 E0
G1 F1800 X78.768 Y84.4 E0.0324
G1 X79.587 Y83.873 E0.06479
G1 X80.449 Y83.421 E0.09717
G1 X81.341 Y83.049 E0.12931
G1 X82.043 Y82.818 E0.15389
G1 X82.995 Y82.541 E0.18687
G1 X83.875 Y82.304 E0.21718
G1 X84.828 Y82.098 E0.24961
G1 X85.793 Y81.978 E0.28195
G1 X86.766 Y81.943 E0.31433
G1 X87.668 Y81.988 E0.34437
G1 X88.666 Y82.127 E0.37789
G1 X89.44 Y82.298 E0.40425
G1 X90.401 Y82.548 E0.43728
G1 X91.478 Y82.865 E0.47462
G1 X92.162 Y83.097 E0.49864
G1 X94.538 Y83.99 E0.58306
G1 X96.962 Y84.823 E0.66831
G1 X99.345 Y85.568 E0.75136
G1 X101.77 Y86.251 E0.83515
G1 X104.2 Y86.861 E0.91848
G1 X106.679 Y87.409 E1.00292
G1 X109.14 Y87.883 E1.08628
G1 X111.639 Y88.288 E1.17048
G1 X114.115 Y88.62 E1.25357
G1 X116.623 Y88.883 E1.33744
G1 X119.134 Y89.077 E1.42121
G1 X121.621 Y89.196 E1.50402
G1 X124.811 Y89.251 E1.61014
G1 X135.134 Y89.253 E1.95348
G1 X135.89 Y89.268 E1.97863
G1 X136.861 Y89.332 E2.011
G1 X137.825 Y89.482 E2.04345
G1 X138.809 Y89.726 E2.07716
G1 X139.087 Y89.809 E2.08681
G1 X139.972 Y90.119 E2.118
G1 X140.907 Y90.545 E2.15218
G1 X142.11 Y91.258 E2.19869
G1 X142.484 Y91.515 E2.21378
G1 X143.261 Y92.103 E2.24619
G1 X143.982 Y92.757 E2.27857
G1 X144.643 Y93.471 E2.31093
G1 X145.24 Y94.243 E2.34339
G1 X145.756 Y95.048 E2.37519
G1 X145.934 Y95.355 E2.38699
G1 X146.391 Y96.236 E2.42
G1 X146.762 Y97.136 E2.45238
G1 X147.041 Y98.026 E2.4834
G1 X147.237 Y98.869 E2.51219
G1 X147.407 Y99.884 E2.54642
G1 X147.488 Y101.039 E2.58493
G1 X147.498 Y101.675 E2.60608
G1 X147.499 Y118.104 E3.15251
G1 X147.487 Y118.962 E3.18105
G1 X147.429 Y119.934 E3.21344
G1 X147.29 Y120.876 E3.24511
G1 X147.226 Y121.199 E3.25606
G1 X146.995 Y122.147 E3.28852
G1 X146.695 Y123.035 E3.31969
G1 X146.307 Y123.923 E3.35192
G1 X145.957 Y124.576 E3.37656
G1 X145.761 Y124.915 E3.38959
G1 X145.235 Y125.733 E3.42194
G1 X144.657 Y126.48 E3.45335
G1 X143.727 Y127.455 E3.49816
G1 X143.432 Y127.727 E3.51151
G1 X142.673 Y128.364 E3.54447
G1 X141.877 Y128.922 E3.5768
G1 X141.095 Y129.375 E3.60686
G1 X140.147 Y129.817 E3.64165
G1 X139.232 Y130.147 E3.674
G1 X138.336 Y130.384 E3.70483
G1 X137.847 Y130.49 E3.72147
G1 X136.876 Y130.655 E3.75423
G1 X135.675 Y130.739 E3.79427
G1 X134.898 Y130.749 E3.82011
G1 X125.397 Y130.749 E4.13612
G1 X122.813 Y130.786 E4.22207
G1 X120.248 Y130.895 E4.30746
G1 X117.769 Y131.071 E4.39012
G1 X115.268 Y131.318 E4.47371
G1 X112.76 Y131.639 E4.55781
G1 X110.277 Y132.029 E4.6414
G1 X107.834 Y132.483 E4.72405
G1 X105.342 Y133.02 E4.80884
G1 X102.896 Y133.619 E4.89259
G1 X100.474 Y134.284 E4.97613
G1 X98.083 Y135.017 E5.05931
G1 X95.718 Y135.815 E5.14233
G1 X92.749 Y136.92 E5.24769
G1 X92.044 Y137.154 E5.2724
G1 X90.827 Y137.51 E5.31457
G1 X90.094 Y137.703 E5.33978
G1 X89.143 Y137.907 E5.37213
G1 X88.177 Y138.027 E5.40451
G1 X87.274 Y138.061 E5.43457
G1 X86.231 Y138.007 E5.4693
G1 X85.267 Y137.869 E5.50169
G1 X84.35 Y137.655 E5.53301
G1 X83.289 Y137.355 E5.56968
G1 X82.56 Y137.132 E5.59504
G1 X81.675 Y136.816 E5.62629
G1 X80.682 Y136.356 E5.66269
G1 X80.014 Y136.003 E5.68782
G1 X79.176 Y135.509 E5.72018
G1 X78.409 Y134.962 E5.75151
G1 X77.503 Y134.173 E5.79147
G1 X76.742 Y133.427 E5.82691
G1 X76.212 Y132.88 E5.85225
G1 X75.612 Y132.205 E5.88228
G1 X74.989 Y131.365 E5.91707
G1 X74.501 Y130.564 E5.94826
G1 X74.083 Y129.725 E5.97944
G1 X73.628 Y128.519 E6.02231
G1 X73.327 Y127.538 E6.05644
G1 X73.131 Y126.832 E6.08081
G1 X72.916 Y125.883 E6.11317
G1 X72.786 Y124.934 E6.14503
G1 X72.751 Y124.438 E6.16157
G1 X72.699 Y123.294 E6.19966
G1 X72.604 Y121.837 E6.24822
G1 X72.599 Y121.598 E6.25617
G1 X72.526 Y120.34 E6.29809
G1 X72.504 Y119.708 E6.31912
G1 X72.502 Y118.233 E6.36818
G1 X72.54 Y116.115 E6.43863
G1 X72.538 Y114.381 E6.49631
G1 X72.555 Y113.171 E6.53656
G1 X72.605 Y111.896 E6.579
G1 X72.666 Y109.953 E6.64365
G1 X72.681 Y107.412 E6.72817
G1 X72.625 Y104.896 E6.81187
G1 X72.511 Y102.403 E6.89487
G1 X72.5 Y101.92 E6.91094
G1 X72.501 Y100.771 E6.94916
G1 X72.54 Y98.542 E7.02331
G1 X72.538 Y96.882 E7.07852
G1 X72.551 Y95.913 E7.11075
G1 X72.608 Y94.942 E7.1431
G1 X72.745 Y94.015 E7.17427
G1 X72.943 Y93.166 E7.20326
G1 X73.263 Y92.023 E7.24274
G1 X73.485 Y91.301 E7.26787
G1 X73.803 Y90.418 E7.29908
G1 X74.227 Y89.503 E7.33262
G1 X74.714 Y88.659 E7.36503
G1 X75.275 Y87.86 E7.3975
G1 X75.897 Y87.122 E7.42961
G1 X76.766 Y86.19 E7.47199
G1 X77.286 Y85.661 E7.49666
G1 X77.999 Y84.998 E7.52904
G0 F9000 X78.245 Y85.313
G1 F1800 X78.985 Y84.736 E7.56025
G1 X79.773 Y84.227 E7.59145
G1 X80.604 Y83.79 E7.62268
G1 X81.466 Y83.429 E7.65376
G1 X82.155 Y83.202 E7.67789
G1 X83.099 Y82.927 E7.7106
G1 X83.96 Y82.695 E7.74025
G1 X84.878 Y82.495 E7.7715
G1 X85.808 Y82.378 E7.80268
G1 X86.746 Y82.343 E7.8339
G1 X87.648 Y82.388 E7.86394
G1 X88.61 Y82.523 E7.89625
G1 X89.339 Y82.685 E7.92108
G1 X90.288 Y82.932 E7.9537
G1 X91.35 Y83.244 E7.99051
G1 X92.021 Y83.471 E8.01407
G1 X94.408 Y84.368 E8.09889
G1 X96.843 Y85.205 E8.18453
G1 X99.226 Y85.95 E8.26757
G1 X101.673 Y86.639 E8.35212
G1 X104.114 Y87.252 E8.43583
G1 X106.596 Y87.801 E8.52038
G1 X109.066 Y88.276 E8.60403
G1 X111.575 Y88.683 E8.68857
G1 X114.073 Y89.018 E8.7724
G1 X116.586 Y89.282 E8.85645
G1 X119.115 Y89.477 E8.94081
G1 X121.602 Y89.596 E9.02362
G1 X124.804 Y89.651 E9.13014
G1 X135.126 Y89.653 E9.47345
G1 X135.864 Y89.667 E9.498
G1 X136.8 Y89.727 E9.52919
G1 X137.729 Y89.87 E9.56046
G1 X138.694 Y90.109 E9.59352
G1 X138.955 Y90.187 E9.60258
G1 X139.84 Y90.497 E9.63377
G1 X140.703 Y90.889 E9.6653
G1 X141.884 Y91.588 E9.71094
G1 X142.243 Y91.834 E9.72542
G1 X142.993 Y92.4 E9.75667
G1 X143.689 Y93.029 E9.78787
G1 X144.327 Y93.716 E9.81905
G1 X144.903 Y94.459 E9.85032
G1 X145.41 Y95.249 E9.88154
G1 X145.579 Y95.54 E9.89274
G1 X146.021 Y96.389 E9.92457
G1 X146.38 Y97.256 E9.95578
G1 X146.651 Y98.117 E9.9858
G1 X146.847 Y98.96 E10.01459
G1 X147.008 Y99.912 E10.0467
G1 X147.088 Y101.045 E10.08448
G1 X147.098 Y101.675 E10.10544
G1 X147.099 Y118.099 E10.6517
G1 X147.088 Y118.939 E10.67964
G1 X147.033 Y119.876 E10.71086
G1 X146.897 Y120.799 E10.74189
G1 X146.837 Y121.105 E10.75226
G1 X146.616 Y122.019 E10.78354
G1 X146.328 Y122.875 E10.81358
G1 X145.94 Y123.763 E10.84581
G1 X145.611 Y124.376 E10.86895
G1 X145.424 Y124.699 E10.88136
G1 X144.918 Y125.489 E10.91256
G1 X144.367 Y126.204 E10.94259
G1 X143.455 Y127.161 E10.98656
G1 X143.174 Y127.421 E10.99929
G1 X142.443 Y128.037 E11.03108
G1 X141.676 Y128.576 E11.06226
G1 X140.894 Y129.029 E11.09232
G1 X140.011 Y129.441 E11.12473
G1 X139.129 Y129.76 E11.15593
G1 X138.251 Y129.993 E11.18614
G1 X137.779 Y130.096 E11.20221
G1 X136.848 Y130.256 E11.23363
G1 X135.67 Y130.339 E11.2729
G1 X134.893 Y130.349 E11.29875
G1 X125.391 Y130.349 E11.61479
G1 X122.796 Y130.386 E11.70111
G1 X120.231 Y130.495 E11.7865
G1 X117.738 Y130.672 E11.86962
G1 X115.217 Y130.921 E11.95388
G1 X112.709 Y131.242 E12.03797
G1 X110.215 Y131.634 E12.12194
G1 X107.75 Y132.092 E12.20533
G1 X105.247 Y132.631 E12.29049
G1 X102.801 Y133.23 E12.37425
G1 X100.368 Y133.899 E12.45818
G1 X97.955 Y134.638 E12.54211
G1 X95.578 Y135.44 E12.62555
G1 X92.623 Y136.54 E12.73042
G1 X91.932 Y136.77 E12.75464
G1 X90.725 Y137.123 E12.79647
G1 X90.01 Y137.312 E12.82107
G1 X89.093 Y137.51 E12.85227
G1 X88.162 Y137.627 E12.88348
G1 X87.259 Y137.661 E12.91354
G1 X86.287 Y137.611 E12.94591
G1 X85.358 Y137.479 E12.97712
G1 X84.459 Y137.27 E13.00781
G1 X83.406 Y136.973 E13.0442
G1 X82.695 Y136.755 E13.06894
G1 X81.81 Y136.439 E13.10019
G1 X80.869 Y136.002 E13.1347
G1 X80.217 Y135.658 E13.15922
G1 X79.408 Y135.183 E13.19042
G1 X78.641 Y134.636 E13.22176
G1 X77.783 Y133.887 E13.25964
G1 X77.029 Y133.148 E13.29475
G1 X76.511 Y132.614 E13.3195
G1 X75.911 Y131.939 E13.34953
G1 X75.331 Y131.157 E13.38192
G1 X74.843 Y130.356 E13.41311
G1 X74.441 Y129.547 E13.44316
G1 X74.01 Y128.402 E13.48385
G1 X73.712 Y127.431 E13.51763
G1 X73.521 Y126.743 E13.54138
G1 X73.312 Y125.828 E13.5726
G1 X73.185 Y124.906 E13.60355
G1 X73.151 Y124.42 E13.61976
G1 X73.099 Y123.276 E13.65785
G1 X73.004 Y121.829 E13.70608
G1 X72.999 Y121.59 E13.71403
G1 X72.926 Y120.326 E13.75614
G1 X72.904 Y119.707 E13.77674
G1 X72.902 Y118.24 E13.82553
G1 X72.94 Y116.122 E13.89599
G1 X72.938 Y114.387 E13.9537
G1 X72.955 Y113.187 E13.99361
G1 X73.005 Y111.912 E14.03605
G1 X73.003 Y111.784 E14.04031
G1 X73.066 Y109.967 E14.10078
G1 X73.081 Y107.414 E14.18569
G1 X73.025 Y104.887 E14.26976
G1 X72.911 Y102.394 E14.35277
G1 X72.9 Y101.92 E14.36854
G1 X72.901 Y100.778 E14.40652
G1 X72.94 Y98.549 E14.48067
G1 X72.938 Y96.887 E14.53595
G1 X72.95 Y95.936 E14.56758
G1 X73.004 Y95 E14.59876
G1 X73.141 Y94.073 E14.62993
G1 X73.328 Y93.274 E14.65722
G1 X73.645 Y92.141 E14.69635
G1 X73.862 Y91.436 E14.72089
G1 X74.166 Y90.586 E14.75091
G1 X74.574 Y89.702 E14.78329
G1 X75.042 Y88.888 E14.81452
G1 X75.581 Y88.118 E14.84579
G1 X76.203 Y87.38 E14.87789
G1 X77.052 Y86.47 E14.91928
G1 X77.559 Y85.953 E14.94336
G1 X78.245 Y85.313 E14.97457
G0 F9000 X78.491 Y85.628
G1 F1800 X79.202 Y85.072 E15.00459
G1 X79.96 Y84.581 E15.03463
G1 X80.759 Y84.159 E15.06468
G1 X81.591 Y83.809 E15.0947
G1 X82.267 Y83.586 E15.11838
G1 X83.203 Y83.313 E15.15081
G1 X84.046 Y83.086 E15.17984
G1 X84.928 Y82.892 E15.20988
G1 X85.824 Y82.778 E15.23992
G1 X86.726 Y82.743 E15.26994
G1 X87.628 Y82.788 E15.29998
G1 X88.523 Y82.913 E15.33004
G1 X89.238 Y83.072 E15.3544
G1 X90.175 Y83.316 E15.38661
G1 X91.222 Y83.623 E15.4229
G1 X91.88 Y83.845 E15.44599
G1 X94.278 Y84.746 E15.53119
G1 X96.724 Y85.587 E15.61722
G1 X99.107 Y86.332 E15.70026
G1 X101.576 Y87.027 E15.78558
G1 X104.028 Y87.643 E15.86966
G1 X106.51 Y88.192 E15.95421
G1 X108.998 Y88.67 E16.03848
G1 X111.511 Y89.078 E16.12315
G1 X114.031 Y89.416 E16.20772
G1 X116.549 Y89.681 E16.29193
G1 X119.096 Y89.877 E16.37689
G1 X121.583 Y89.996 E16.45971
G1 X124.797 Y90.051 E16.56662
G1 X135.119 Y90.053 E16.90993
G1 X135.839 Y90.066 E16.93388
G1 X136.74 Y90.122 E16.96391
G1 X137.633 Y90.258 E16.99395
G1 X138.579 Y90.492 E17.02636
G1 X138.823 Y90.565 E17.03483
G1 X139.676 Y90.862 E17.06488
G1 X140.499 Y91.233 E17.0949
G1 X141.658 Y91.918 E17.13968
G1 X142.003 Y92.154 E17.15358
G1 X142.725 Y92.697 E17.18363
G1 X143.396 Y93.301 E17.21366
G1 X144.011 Y93.962 E17.24369
G1 X144.566 Y94.675 E17.27374
G1 X145.064 Y95.45 E17.30438
G1 X145.233 Y95.741 E17.31557
G1 X145.652 Y96.542 E17.34564
G1 X145.998 Y97.376 E17.37567
G1 X146.269 Y98.237 E17.40569
G1 X146.457 Y99.05 E17.43344
G1 X146.609 Y99.94 E17.46347
G1 X146.688 Y101.051 E17.50052
G1 X146.698 Y101.675 E17.52128
G1 X146.699 Y118.094 E18.06737
G1 X146.689 Y118.916 E18.09472
G1 X146.637 Y119.818 E18.12477
G1 X146.504 Y120.723 E18.15519
G1 X146.448 Y121.012 E18.16498
G1 X146.237 Y121.891 E18.19505
G1 X145.949 Y122.747 E18.22509
G1 X145.587 Y123.574 E18.25511
G1 X145.265 Y124.176 E18.27782
G1 X145.087 Y124.484 E18.28965
G1 X144.601 Y125.245 E18.31968
G1 X144.05 Y125.96 E18.34971
G1 X143.183 Y126.867 E18.39144
G1 X142.902 Y127.127 E18.40417
G1 X142.213 Y127.71 E18.43419
G1 X141.475 Y128.23 E18.46422
G1 X140.693 Y128.683 E18.49428
G1 X139.875 Y129.065 E18.5243
G1 X139.026 Y129.373 E18.55434
G1 X138.165 Y129.602 E18.58398
G1 X137.71 Y129.702 E18.59947
G1 X136.82 Y129.857 E18.62952
G1 X135.665 Y129.939 E18.66803
G1 X134.888 Y129.949 E18.69387
G1 X125.385 Y129.949 E19.00995
G1 X122.779 Y129.986 E19.09663
G1 X120.214 Y130.095 E19.18202
G1 X117.707 Y130.273 E19.26561
G1 X115.166 Y130.524 E19.35054
G1 X112.658 Y130.845 E19.43463
G1 X110.153 Y131.239 E19.51898
G1 X107.666 Y131.701 E19.60311
G1 X105.152 Y132.242 E19.68864
G1 X102.706 Y132.841 E19.7724
G1 X100.262 Y133.514 E19.85671
G1 X97.827 Y134.259 E19.9414
G1 X95.438 Y135.065 E20.02526
G1 X92.483 Y136.165 E20.13014
G1 X91.82 Y136.386 E20.15338
G1 X90.623 Y136.736 E20.19486
G1 X89.925 Y136.921 E20.21888
G1 X89.043 Y137.113 E20.2489
G1 X88.147 Y137.227 E20.27894
G1 X87.244 Y137.261 E20.309
G1 X86.343 Y137.215 E20.339
G1 X85.448 Y137.089 E20.36906
G1 X84.568 Y136.885 E20.39911
G1 X83.523 Y136.59 E20.43522
G1 X82.829 Y136.378 E20.45936
G1 X81.978 Y136.076 E20.48939
G1 X81.055 Y135.648 E20.52323
G1 X80.419 Y135.313 E20.54714
G1 X79.64 Y134.857 E20.57716
G1 X78.904 Y134.334 E20.60719
G1 X78.063 Y133.601 E20.6443
G1 X77.316 Y132.869 E20.67908
G1 X76.81 Y132.348 E20.70324
G1 X76.21 Y131.673 E20.73328
G1 X75.672 Y130.948 E20.76331
G1 X75.201 Y130.178 E20.79333
G1 X74.799 Y129.369 E20.82337
G1 X74.392 Y128.285 E20.86188
G1 X74.097 Y127.324 E20.89532
G1 X73.911 Y126.653 E20.91848
G1 X73.708 Y125.773 E20.94852
G1 X73.584 Y124.878 E20.97857
G1 X73.551 Y124.401 E20.99447
G1 X73.498 Y123.257 E21.03256
G1 X73.404 Y121.821 E21.08043
G1 X73.399 Y121.582 E21.08838
G1 X73.326 Y120.311 E21.13072
G1 X73.304 Y119.706 E21.15086
G1 X73.302 Y118.247 E21.19938
G1 X73.34 Y116.129 E21.26984
G1 X73.338 Y114.393 E21.32758
G1 X73.355 Y113.203 E21.36716
G1 X73.405 Y111.928 E21.4096
G1 X73.403 Y111.798 E21.41393
G1 X73.466 Y109.981 E21.4744
G1 X73.481 Y107.416 E21.55971
G1 X73.425 Y104.878 E21.64414
G1 X73.311 Y102.385 E21.72715
G1 X73.3 Y101.92 E21.74262
G1 X73.301 Y100.785 E21.78037
G1 X73.34 Y98.556 E21.85452
G1 X73.338 Y96.892 E21.90986
G1 X73.349 Y95.959 E21.9409
G1 X73.4 Y95.058 E21.97091
G1 X73.531 Y94.164 E22.00096
G1 X73.713 Y93.382 E22.02767
G1 X74.027 Y92.259 E22.06645
G1 X74.239 Y91.571 E22.0904
G1 X74.543 Y90.721 E22.12042
G1 X74.921 Y89.901 E22.15045
G1 X75.37 Y89.117 E22.1805
G1 X75.887 Y88.376 E22.21055
G1 X76.509 Y87.638 E22.24265
G1 X77.338 Y86.75 E22.28306
G1 X77.832 Y86.245 E22.30656
G1 X78.491 Y85.628 E22.33658
G1 F2400 E21.53658
G0 F9000 X85.221 Y93.549
G1 F2400 E22.33658
G1 F1800 X86.687 Y93.137 E22.38723
G1 X88.153 Y93.549 E22.43788
G1 X88.318 Y93.722 E22.44583
G1 X88.409 Y93.777 E22.44937
G1 X88.786 Y93.883 E22.46239
G1 X89.704 Y94.852 E22.50679
G1 X90.061 Y96.073 E22.5491
G1 X89.704 Y97.35 E22.5932
G1 X88.784 Y98.27 E22.63647
G1 X88.423 Y98.372 E22.64895
G1 X88.336 Y98.422 E22.65229
G1 X88.154 Y98.603 E22.66083
G1 X86.685 Y99.014 E22.71156
G1 X85.282 Y98.603 E22.76019
G1 X84.159 Y97.48 E22.81301
G1 X83.746 Y96.075 E22.86172
G1 X84.157 Y94.67 E22.91041
G1 X85.221 Y93.549 E22.96181
G0 F9000 X85.435 Y93.904
G1 F1800 X86.687 Y93.553 E23.00506
G1 X87.94 Y93.905 E23.04835
G1 X88.029 Y93.998 E23.05263
G1 X88.301 Y94.162 E23.06319
G1 X88.571 Y94.238 E23.07252
G1 X89.348 Y95.058 E23.11009
G1 X89.645 Y96.075 E23.14533
G1 X89.347 Y97.141 E23.18215
G1 X88.575 Y97.913 E23.21846
G1 X88.314 Y97.987 E23.22748
G1 X88.054 Y98.139 E23.2375
G1 X87.947 Y98.246 E23.24253
G1 X86.689 Y98.598 E23.28598
G1 X85.493 Y98.248 E23.32743
G1 X84.514 Y97.269 E23.37348
G1 X84.163 Y96.074 E23.4149
G1 X84.514 Y94.874 E23.45649
G1 X85.435 Y93.904 E23.50097
G0 F9000 X85.648 Y94.26
G1 F1800 X86.687 Y93.968 E23.53687
G1 X87.726 Y94.26 E23.57277
G1 X87.739 Y94.274 E23.5734
G1 X87.961 Y94.449 E23.5828
G1 X88.194 Y94.547 E23.59121
G1 X88.357 Y94.593 E23.59684
G1 X88.99 Y95.262 E23.62748
G1 X89.229 Y96.079 E23.65579
G1 X88.991 Y96.931 E23.68521
G1 X88.365 Y97.557 E23.71466
G1 X88.205 Y97.602 E23.72019
G1 X87.947 Y97.716 E23.72957
G1 X87.772 Y97.855 E23.737
G1 X87.737 Y97.889 E23.73862
G1 X86.692 Y98.182 E23.77472
G1 X85.704 Y97.893 E23.80896
G1 X84.87 Y97.059 E23.84819
G1 X84.58 Y96.074 E23.88234
