;FLAVOR:Marlin
;TIME:6368
;Filament used: 3.5229m
;Layer height: 0.2
;MINX:72.5
;MINY:81.943
;MINZ:0.2
;MAXX:147.499
;MAXY:138.061
;MAXZ:82
;TARGET_MACHINE.NAME:Creality Ender-3 V3 SE
;Generated with Cura_SteamEngine 5.6.0
M140 S60
M105
M190 S60
M104 S210
M105
M109 S210
M82 ;absolute extrusion mode
M220 S100 ;Reset Feedrate
M221 S100 ;Reset Flowrate

G28 ;Home

M420 S1; Enable mesh leveling

G92 E0 ;Reset Extruder
G1 Z2.0 F3000 ;Move Z Axis up
G1 X10.1 Y20 Z0.28 F5000.0 ;Move to start position
M109 S[material_print_temperature_layer_0]
G1 X10.1 Y145.0 Z0.28 F1500.0 E15 ;Draw the first line
G1 X10.4 Y145.0 Z0.28 F5000.0 ;Move to side a little
G1 X10.4 Y20 Z0.28 F1500.0 E30 ;Draw the second line
G92 E0  ;Reset Extruder
G1 E-1.0000 F1800 ;Retract a bit
G1 Z2.0 F3000 ;Move Z Axis up
G1 E0.0000 F1800 

G92 E0
G92 E0
G1 F2400 E-0.8
;LAYER_COUNT:410
;LAYER:0
M107
G0 F9000 X78.163 Y84.998 Z0.2
;TYPE:SKIRT
G1 F2400 E0
G1 F1800 X78.932 Y84.4 E0.0324
G1 X79.751 Y83.873 E0.06479
G1 X80.613 Y83.421 E0.09717
G1 X81.505 Y83.049 E0.12931
G1 X82.207 Y82.818 E0.15389
G1 X83.159 Y82.541 E0.18687
G1 X84.039 Y82.304 E0.21718
G1 X84.992 Y82.098 E0.24961
G1 X85.957 Y81.978 E0.28195
G1 X86.93 Y81.943 E0.31433
G1 X87.832 Y81.988 E0.34437
G1 X88.861 Y82.132 E0.37893
G1 X89.608 Y82.298 E0.40438
G1 X90.893 Y82.639 E0.4486
G1 X91.609 Y82.853 E0.47346
G1 X92.212 Y83.054 E0.4946
G1 X93.776 Y83.625 E0.54997
G1 X96.201 Y84.458 E0.63525
G1 X98.598 Y85.205 E0.71876
G1 X101.013 Y85.883 E0.80219
G1 X103.448 Y86.491 E0.88566
G1 X105.952 Y87.044 E0.97095
G1 X108.39 Y87.512 E1.05352
G1 X110.893 Y87.916 E1.13785
G1 X113.343 Y88.243 E1.22006
G1 X117.204 Y88.625 E1.34911
G1 X118.275 Y88.739 E1.38493
G1 X120.891 Y88.981 E1.47231
G1 X123.354 Y89.138 E1.55439
G1 X125.968 Y89.231 E1.64139
G1 X127.831 Y89.251 E1.70336
G1 X135.134 Y89.253 E1.94626
G1 X135.89 Y89.268 E1.97141
G1 X136.861 Y89.332 E2.00377
G1 X137.825 Y89.482 E2.03622
G1 X138.809 Y89.726 E2.06994
G1 X139.087 Y89.809 E2.07959
G1 X140.004 Y90.132 E2.11193
G1 X140.866 Y90.523 E2.14341
G1 X142.097 Y91.25 E2.19096
G1 X142.473 Y91.507 E2.20611
G1 X143.25 Y92.093 E2.23848
G1 X143.971 Y92.745 E2.27081
G1 X144.636 Y93.46 E2.30328
G1 X145.233 Y94.233 E2.33577
G1 X145.784 Y95.095 E2.3698
G1 X145.971 Y95.422 E2.38232
G1 X146.416 Y96.29 E2.41477
G1 X146.772 Y97.167 E2.44625
G1 X147.16 Y98.514 E2.49287
G1 X147.239 Y98.881 E2.50536
G1 X147.404 Y99.852 E2.53812
G1 X147.487 Y101.033 E2.57749
G1 X147.498 Y101.761 E2.60171
G1 X147.499 Y118.104 E3.14528
G1 X147.487 Y118.962 E3.17382
G1 X147.429 Y119.934 E3.20621
G1 X147.29 Y120.876 E3.23788
G1 X147.226 Y121.199 E3.24883
G1 X146.995 Y122.147 E3.28128
G1 X146.707 Y123.003 E3.31132
G1 X146.291 Y123.954 E3.34584
G1 X145.924 Y124.633 E3.37152
G1 X145.721 Y124.978 E3.38483
G1 X145.19 Y125.794 E3.41721
G1 X144.584 Y126.564 E3.4498
G1 X143.815 Y127.372 E3.4869
G1 X143.522 Y127.648 E3.50029
G1 X142.785 Y128.283 E3.53264
G1 X141.994 Y128.851 E3.56503
G1 X141.186 Y129.33 E3.59628
G1 X140.276 Y129.765 E3.62982
G1 X139.359 Y130.106 E3.66236
G1 X138.345 Y130.382 E3.69732
G1 X137.847 Y130.49 E3.71426
G1 X136.876 Y130.655 E3.74702
G1 X135.675 Y130.739 E3.78707
G1 X134.898 Y130.749 E3.81291
G1 X128.203 Y130.749 E4.03559
G1 X125.619 Y130.786 E4.12154
G1 X123.054 Y130.895 E4.20693
G1 X120.601 Y131.069 E4.28872
G1 X117.384 Y131.394 E4.39626
G1 X116.712 Y131.452 E4.4187
G1 X114.17 Y131.709 E4.50368
G1 X111.629 Y132.04 E4.5889
G1 X109.151 Y132.433 E4.67235
G1 X106.709 Y132.892 E4.755
G1 X104.229 Y133.432 E4.83941
G1 X101.773 Y134.037 E4.92354
G1 X99.4 Y134.696 E5.00546
G1 X96.945 Y135.453 E5.0909
G1 X94.56 Y136.262 E5.17467
G1 X92.656 Y136.953 E5.24204
G1 X92.049 Y137.153 E5.26329
G1 X91.115 Y137.428 E5.29568
G1 X90.091 Y137.703 E5.33094
G1 X89.137 Y137.908 E5.3634
G1 X88.172 Y138.027 E5.39574
G1 X87.27 Y138.061 E5.42576
G1 X86.227 Y138.006 E5.4605
G1 X85.262 Y137.869 E5.49291
G1 X84.345 Y137.654 E5.52424
G1 X83.289 Y137.355 E5.56074
G1 X82.56 Y137.132 E5.5861
G1 X81.675 Y136.816 E5.61736
G1 X80.682 Y136.356 E5.65375
G1 X80.014 Y136.003 E5.67888
G1 X79.176 Y135.509 E5.71124
G1 X78.409 Y134.962 E5.74257
G1 X77.503 Y134.173 E5.78253
G1 X76.742 Y133.427 E5.81797
G1 X76.212 Y132.88 E5.84331
G1 X75.612 Y132.205 E5.87334
G1 X74.989 Y131.365 E5.90813
G1 X74.501 Y130.564 E5.93932
G1 X74.083 Y129.725 E5.9705
G1 X73.628 Y128.519 E6.01337
G1 X73.327 Y127.538 E6.0475
G1 X73.131 Y126.832 E6.07187
G1 X72.916 Y125.883 E6.10424
G1 X72.786 Y124.934 E6.13609
G1 X72.751 Y124.438 E6.15263
G1 X72.699 Y123.294 E6.19072
G1 X72.604 Y121.837 E6.23928
G1 X72.599 Y121.598 E6.24724
G1 X72.526 Y120.333 E6.28938
G1 X72.5 Y119.348 E6.32215
G1 X72.51 Y117.657 E6.3784
G1 X72.538 Y116.968 E6.40133
G1 X72.572 Y116.493 E6.41717
G1 X72.72 Y113.873 E6.50445
G1 X72.792 Y111.339 E6.58877
G1 X72.792 Y108.845 E6.67172
G1 X72.692 Y105.695 E6.77654
G1 X72.603 Y104.345 E6.82154
G1 X72.597 Y104.077 E6.83045
G1 X72.526 Y102.847 E6.87143
G1 X72.5 Y101.856 E6.9044
G1 X72.51 Y100.154 E6.96101
G1 X72.528 Y99.634 E6.97832
G1 X72.654 Y97.323 E7.0553
G1 X72.722 Y95.62 E7.11198
G1 X72.807 Y94.649 E7.1444
G1 X72.962 Y93.759 E7.17445
G1 X73.107 Y93.166 E7.19476
G1 X73.427 Y92.023 E7.23423
G1 X73.649 Y91.301 E7.25936
G1 X73.967 Y90.418 E7.29057
G1 X74.391 Y89.503 E7.32411
G1 X74.878 Y88.659 E7.35652
G1 X75.439 Y87.86 E7.38899
G1 X76.061 Y87.122 E7.4211
G1 X76.93 Y86.19 E7.46348
G1 X77.45 Y85.661 E7.48815
G1 X78.163 Y84.998 E7.52053
G0 F9000 X78.409 Y85.313
G1 F1800 X79.149 Y84.736 E7.55174
G1 X79.937 Y84.227 E7.58294
G1 X80.768 Y83.79 E7.61417
G1 X81.63 Y83.429 E7.64525
G1 X82.319 Y83.202 E7.66938
G1 X83.263 Y82.927 E7.70209
G1 X84.124 Y82.695 E7.73174
G1 X85.042 Y82.495 E7.76299
G1 X85.972 Y82.378 E7.79417
G1 X86.91 Y82.343 E7.82539
G1 X87.812 Y82.388 E7.85543
G1 X88.774 Y82.523 E7.88774
G1 X89.505 Y82.685 E7.91264
G1 X90.79 Y83.026 E7.95686
G1 X91.483 Y83.233 E7.98091
G1 X92.075 Y83.43 E8.00166
G1 X93.639 Y84.001 E8.05704
G1 X96.082 Y84.84 E8.14295
G1 X98.479 Y85.587 E8.22646
G1 X100.916 Y86.271 E8.31065
G1 X103.362 Y86.882 E8.3945
G1 X105.866 Y87.435 E8.47979
G1 X108.322 Y87.906 E8.56297
G1 X110.829 Y88.311 E8.64743
G1 X113.304 Y88.641 E8.73048
G1 X117.162 Y89.023 E8.85942
G1 X118.233 Y89.137 E8.89525
G1 X120.862 Y89.38 E8.98306
G1 X123.34 Y89.538 E9.06565
G1 X125.954 Y89.631 E9.15264
G1 X127.827 Y89.651 E9.21494
G1 X135.126 Y89.653 E9.45771
G1 X135.864 Y89.667 E9.48226
G1 X136.8 Y89.727 E9.51346
G1 X137.729 Y89.87 E9.54472
G1 X138.694 Y90.109 E9.57778
G1 X138.955 Y90.187 E9.58684
G1 X139.84 Y90.497 E9.61803
G1 X140.663 Y90.868 E9.64806
G1 X141.872 Y91.581 E9.69474
G1 X142.233 Y91.827 E9.70927
G1 X142.982 Y92.39 E9.74044
G1 X143.679 Y93.018 E9.77164
G1 X144.32 Y93.705 E9.80289
G1 X144.896 Y94.448 E9.83416
G1 X145.437 Y95.294 E9.86756
G1 X145.615 Y95.605 E9.87948
G1 X146.045 Y96.44 E9.91072
G1 X146.401 Y97.317 E9.9422
G1 X146.769 Y98.599 E9.98656
G1 X146.845 Y98.949 E9.99847
G1 X147.005 Y99.88 E10.02989
G1 X147.087 Y101.039 E10.06853
G1 X147.098 Y101.761 E10.09255
G1 X147.099 Y118.099 E10.63596
G1 X147.088 Y118.939 E10.6639
G1 X147.033 Y119.876 E10.69511
G1 X146.897 Y120.799 E10.72615
G1 X146.837 Y121.105 E10.73652
G1 X146.616 Y122.019 E10.76779
G1 X146.328 Y122.875 E10.79783
G1 X145.939 Y123.764 E10.83011
G1 X145.579 Y124.431 E10.85532
G1 X145.386 Y124.76 E10.868
G1 X144.875 Y125.547 E10.89921
G1 X144.294 Y126.288 E10.93053
G1 X143.54 Y127.081 E10.96692
G1 X143.261 Y127.345 E10.9797
G1 X142.551 Y127.958 E11.0109
G1 X141.789 Y128.507 E11.04214
G1 X141.013 Y128.969 E11.07217
G1 X140.136 Y129.39 E11.10453
G1 X139.254 Y129.72 E11.13585
G1 X138.26 Y129.991 E11.17012
G1 X137.779 Y130.096 E11.18649
G1 X136.848 Y130.256 E11.21791
G1 X135.67 Y130.339 E11.25719
G1 X134.893 Y130.349 E11.28304
G1 X128.197 Y130.349 E11.50574
G1 X125.602 Y130.386 E11.59206
G1 X123.037 Y130.495 E11.67745
G1 X120.566 Y130.67 E11.75984
G1 X117.35 Y130.995 E11.86735
G1 X116.678 Y131.053 E11.88979
G1 X114.118 Y131.312 E11.97537
G1 X111.577 Y131.643 E12.0606
G1 X109.088 Y132.038 E12.14442
G1 X106.624 Y132.501 E12.2278
G1 X104.144 Y133.041 E12.31222
G1 X101.677 Y133.649 E12.39673
G1 X99.282 Y134.314 E12.4794
G1 X96.817 Y135.074 E12.5652
G1 X94.432 Y135.883 E12.64896
G1 X92.531 Y136.573 E12.71622
G1 X91.936 Y136.769 E12.73706
G1 X91.011 Y137.042 E12.76914
G1 X90.006 Y137.312 E12.80375
G1 X89.088 Y137.511 E12.83499
G1 X88.157 Y137.627 E12.8662
G1 X87.255 Y137.661 E12.89622
G1 X86.283 Y137.61 E12.92859
G1 X85.353 Y137.479 E12.95983
G1 X84.454 Y137.269 E12.99053
G1 X83.406 Y136.973 E13.02676
G1 X82.695 Y136.755 E13.05149
G1 X81.81 Y136.439 E13.08274
G1 X80.869 Y136.002 E13.11725
G1 X80.217 Y135.658 E13.14177
G1 X79.408 Y135.183 E13.17297
G1 X78.641 Y134.636 E13.20431
G1 X77.783 Y133.887 E13.24219
G1 X77.029 Y133.148 E13.2773
G1 X76.511 Y132.614 E13.30205
G1 X75.911 Y131.939 E13.33209
G1 X75.331 Y131.157 E13.36447
G1 X74.843 Y130.356 E13.39566
G1 X74.441 Y129.547 E13.42571
G1 X74.01 Y128.402 E13.4664
G1 X73.712 Y127.431 E13.50018
G1 X73.521 Y126.743 E13.52393
G1 X73.312 Y125.828 E13.55515
G1 X73.185 Y124.906 E13.58611
G1 X73.151 Y124.42 E13.60231
G1 X73.099 Y123.276 E13.6404
G1 X73.004 Y121.829 E13.68863
G1 X72.999 Y121.59 E13.69658
G1 X72.926 Y120.322 E13.73882
G1 X72.9 Y119.35 E13.77116
G1 X72.91 Y117.673 E13.82694
G1 X72.937 Y116.997 E13.84944
G1 X72.971 Y116.522 E13.86528
G1 X73.12 Y113.884 E13.95316
G1 X73.192 Y111.35 E14.03748
G1 X73.192 Y108.845 E14.1208
G1 X73.092 Y105.682 E14.22605
G1 X73.003 Y104.336 E14.27092
G1 X72.997 Y104.068 E14.27983
G1 X72.926 Y102.836 E14.32088
G1 X72.9 Y101.858 E14.35342
G1 X72.91 Y100.167 E14.40966
G1 X72.927 Y99.656 E14.42667
G1 X73.054 Y97.339 E14.50384
G1 X73.121 Y95.654 E14.55993
G1 X73.201 Y94.718 E14.59118
G1 X73.356 Y93.828 E14.62122
G1 X73.492 Y93.274 E14.6402
G1 X73.809 Y92.141 E14.67933
G1 X74.026 Y91.436 E14.70386
G1 X74.33 Y90.586 E14.73389
G1 X74.738 Y89.702 E14.76627
G1 X75.206 Y88.888 E14.7975
G1 X75.745 Y88.118 E14.82876
G1 X76.367 Y87.38 E14.86086
G1 X77.216 Y86.47 E14.90226
G1 X77.723 Y85.953 E14.92634
G1 X78.409 Y85.313 E14.95754
G0 F9000 X78.655 Y85.628
G1 F1800 X79.366 Y85.072 E14.98756
G1 X80.124 Y84.581 E15.0176
G1 X80.923 Y84.159 E15.04766
G1 X81.755 Y83.809 E15.07768
G1 X82.431 Y83.586 E15.10135
G1 X83.367 Y83.313 E15.13378
G1 X84.21 Y83.086 E15.16282
G1 X85.092 Y82.892 E15.19286
G1 X85.988 Y82.778 E15.2229
G1 X86.89 Y82.743 E15.25292
G1 X87.792 Y82.788 E15.28296
G1 X88.687 Y82.913 E15.31301
G1 X89.402 Y83.072 E15.33738
G1 X90.687 Y83.413 E15.38159
G1 X91.357 Y83.613 E15.40485
G1 X91.938 Y83.806 E15.42521
G1 X93.502 Y84.377 E15.48059
G1 X95.963 Y85.222 E15.56713
G1 X98.36 Y85.969 E15.65064
G1 X100.819 Y86.659 E15.73559
G1 X103.276 Y87.273 E15.81982
G1 X105.78 Y87.826 E15.90511
G1 X108.254 Y88.3 E15.98889
G1 X110.765 Y88.706 E16.07349
G1 X113.265 Y89.039 E16.15738
G1 X117.12 Y89.421 E16.28622
G1 X118.191 Y89.535 E16.32205
G1 X120.833 Y89.779 E16.41029
G1 X123.326 Y89.938 E16.49338
G1 X125.94 Y90.031 E16.58038
G1 X127.823 Y90.051 E16.64301
G1 X135.119 Y90.053 E16.88567
G1 X135.839 Y90.066 E16.90963
G1 X136.74 Y90.122 E16.93965
G1 X137.633 Y90.258 E16.96969
G1 X138.579 Y90.492 E17.00211
G1 X138.823 Y90.565 E17.01058
G1 X139.676 Y90.862 E17.04062
G1 X140.499 Y91.233 E17.07065
G1 X141.647 Y91.911 E17.11499
G1 X141.993 Y92.147 E17.12892
G1 X142.715 Y92.688 E17.15893
G1 X143.387 Y93.291 E17.18896
G1 X144.004 Y93.951 E17.21901
G1 X144.559 Y94.664 E17.24906
G1 X145.09 Y95.493 E17.2818
G1 X145.26 Y95.789 E17.29316
G1 X145.675 Y96.591 E17.32319
G1 X146.017 Y97.427 E17.35323
G1 X146.378 Y98.685 E17.39676
G1 X146.451 Y99.018 E17.4081
G1 X146.606 Y99.908 E17.43815
G1 X146.687 Y101.045 E17.47606
G1 X146.698 Y101.761 E17.49988
G1 X146.699 Y118.094 E18.04312
G1 X146.689 Y118.916 E18.07046
G1 X146.637 Y119.818 E18.10051
G1 X146.504 Y120.723 E18.13093
G1 X146.448 Y121.012 E18.14072
G1 X146.237 Y121.891 E18.17079
G1 X145.949 Y122.747 E18.20083
G1 X145.587 Y123.574 E18.23085
G1 X145.234 Y124.229 E18.2556
G1 X145.05 Y124.543 E18.26771
G1 X144.56 Y125.301 E18.29773
G1 X144.004 Y126.013 E18.32777
G1 X143.265 Y126.791 E18.36346
G1 X142.999 Y127.043 E18.37565
G1 X142.317 Y127.634 E18.40566
G1 X141.584 Y128.163 E18.43573
G1 X140.808 Y128.625 E18.46577
G1 X139.995 Y129.016 E18.49577
G1 X139.149 Y129.334 E18.52583
G1 X138.174 Y129.6 E18.55945
G1 X137.71 Y129.702 E18.57525
G1 X136.82 Y129.857 E18.6053
G1 X135.665 Y129.939 E18.64381
G1 X134.888 Y129.949 E18.66965
G1 X128.191 Y129.949 E18.8924
G1 X125.585 Y129.986 E18.97908
G1 X123.02 Y130.095 E19.06447
G1 X120.531 Y130.271 E19.14746
G1 X117.316 Y130.596 E19.25494
G1 X116.644 Y130.654 E19.27737
G1 X114.066 Y130.915 E19.36355
G1 X111.525 Y131.246 E19.44878
G1 X109.025 Y131.643 E19.53297
G1 X106.539 Y132.11 E19.61711
G1 X104.059 Y132.65 E19.70152
G1 X101.581 Y133.261 E19.78641
G1 X99.164 Y133.932 E19.86984
G1 X96.689 Y134.695 E19.95598
G1 X94.295 Y135.507 E20.04006
G1 X92.406 Y136.193 E20.10691
G1 X91.822 Y136.385 E20.12735
G1 X90.907 Y136.656 E20.15909
G1 X89.921 Y136.921 E20.19305
G1 X89.038 Y137.114 E20.22311
G1 X88.142 Y137.227 E20.25315
G1 X87.24 Y137.261 E20.28317
G1 X86.338 Y137.214 E20.31321
G1 X85.444 Y137.089 E20.34324
G1 X84.563 Y136.884 E20.37332
G1 X83.523 Y136.59 E20.40927
G1 X82.829 Y136.378 E20.4334
G1 X81.978 Y136.076 E20.46344
G1 X81.055 Y135.648 E20.49728
G1 X80.419 Y135.313 E20.52118
G1 X79.64 Y134.857 E20.55121
G1 X78.904 Y134.334 E20.58124
G1 X78.063 Y133.601 E20.61834
G1 X77.316 Y132.869 E20.65313
G1 X76.81 Y132.348 E20.67728
G1 X76.21 Y131.673 E20.70732
G1 X75.672 Y130.948 E20.73735
G1 X75.201 Y130.178 E20.76737
G1 X74.799 Y129.369 E20.79742
G1 X74.392 Y128.285 E20.83593
G1 X74.097 Y127.324 E20.86936
G1 X73.911 Y126.653 E20.89252
G1 X73.708 Y125.773 E20.92256
G1 X73.584 Y124.878 E20.95261
G1 X73.551 Y124.401 E20.96852
G1 X73.498 Y123.257 E21.00661
G1 X73.404 Y121.821 E21.05447
G1 X73.399 Y121.582 E21.06242
G1 X73.326 Y120.311 E21.10476
G1 X73.3 Y119.352 E21.13667
G1 X73.31 Y117.689 E21.19198
G1 X73.336 Y117.026 E21.21405
G1 X73.37 Y116.551 E21.22989
G1 X73.52 Y113.895 E21.31837
G1 X73.592 Y111.361 E21.40269
G1 X73.592 Y108.845 E21.48637
G1 X73.492 Y105.669 E21.59206
G1 X73.403 Y104.327 E21.63679
G1 X73.397 Y104.059 E21.64571
G1 X73.326 Y102.825 E21.68682
G1 X73.3 Y101.86 E21.71892
G1 X73.31 Y100.18 E21.7748
G1 X73.326 Y99.678 E21.79151
G1 X73.454 Y97.355 E21.86889
G1 X73.52 Y95.687 E21.92441
G1 X73.595 Y94.787 E21.95445
G1 X73.75 Y93.897 E21.98449
G1 X73.877 Y93.382 E22.00214
G1 X74.191 Y92.259 E22.04092
G1 X74.403 Y91.571 E22.06486
G1 X74.707 Y90.721 E22.09489
G1 X75.085 Y89.901 E22.12492
G1 X75.534 Y89.117 E22.15497
G1 X76.051 Y88.376 E22.18502
G1 X76.673 Y87.638 E22.21712
G1 X77.502 Y86.75 E22.25753
G1 X77.996 Y86.245 E22.28102
G1 X78.655 Y85.628 E22.31105
G1 F2400 E21.51105
G0 F9000 X85.385 Y93.549
G1 F2400 E22.31105
G1 F1800 X86.851 Y93.137 E22.3617
G1 X88.317 Y93.549 E22.41235
G1 X89.381 Y94.67 E22.46375
G1 X89.789 Y96.073 E22.51235
G1 X89.378 Y97.543 E22.56312
G1 X88.319 Y98.602 E22.61293
G1 X86.849 Y99.013 E22.6637
G1 X85.446 Y98.603 E22.71231
G1 X84.323 Y97.48 E22.76513
G1 X83.91 Y96.075 E22.81384
G1 X84.321 Y94.67 E22.86253
G1 X85.385 Y93.549 E22.91394
G0 F9000 X85.599 Y93.904
G1 F1800 X86.851 Y93.553 E22.95718
G1 X88.103 Y93.904 E23.00043
G1 X89.023 Y94.874 E23.0449
G1 X89.373 Y96.075 E23.0865
G1 X89.021 Y97.334 E23.12998
G1 X88.11 Y98.245 E23.17283
G1 X86.852 Y98.597 E23.21628
G1 X85.657 Y98.248 E23.25769
G1 X84.678 Y97.269 E23.30374
G1 X84.327 Y96.074 E23.34516
G1 X84.678 Y94.874 E23.38675
G1 X85.599 Y93.904 E23.43124
G0 F9000 X85.812 Y94.26
G1 F1800 X86.851 Y93.968 E23.46713
G1 X87.89 Y94.26 E23.50303
G1 X88.667 Y95.079 E23.54058
G1 X88.957 Y96.078 E23.57517
G1 X88.665 Y97.124 E23.6113
G1 X87.9 Y97.889 E23.64728
G1 X86.855 Y98.181 E23.68337
G1 X85.868 Y97.893 E23.71756
G1 X85.034 Y97.059 E23.75679
G1 X84.744 Y96.074 E23.79094
G1 X85.036 Y95.078 E23.82547
G1 X85.812 Y94.26 E23.86297
G0 F9000 X86.029 Y94.615
G1 F1800 X86.851 Y94.383 E23.89137
G1 X87.673 Y94.615 E23.91978
G1 X88.31 Y95.286 E23.95055
G1 X88.541 Y96.08 E23.97806
