;FLAVOR:Marlin
;TIME:6336
;Filament used: 3.50987m
;Layer height: 0.2
;MINX:72.5
;MINY:81.943
;MINZ:0.2
;MAXX:147.499
;MAXY:138.061
;MAXZ:82
;TARGET_MACHINE.NAME:Creality Ender-3 V3 SE
;Generated with Cura_SteamEngine 5.6.0
M140 S60
M105
M190 S60
M104 S210
M105
M109 S210
M82 ;absolute extrusion mode
M220 S100 ;Reset Feedrate
M221 S100 ;Reset Flowrate

G28 ;Home

M420 S1; Enable mesh leveling

G92 E0 ;Reset Extruder
G1 Z2.0 F3000 ;Move Z Axis up
G1 X10.1 Y20 Z0.28 F5000.0 ;Move to start position
M109 S[material_print_temperature_layer_0]
G1 X10.1 Y145.0 Z0.28 F1500.0 E15 ;Draw the first line
G1 X10.4 Y145.0 Z0.28 F5000.0 ;Move to side a little
G1 X10.4 Y20 Z0.28 F1500.0 E30 ;Draw the second line
G92 E0  ;Reset Extruder
G1 E-1.0000 F1800 ;Retract a bit
G1 Z2.0 F3000 ;Move Z Axis up
G1 E0.0000 F1800 

G92 E0
G92 E0
G1 F2400 E-0.8
;LAYER_COUNT:410
;LAYER:0
M107
G0 F9000 X78.163 Y84.998 Z0.2
;TYPE:SKIRT
G1 F2400 E0
G1 F1800 X78.932 Y84.4 E0.0324
G1 X79.751 Y83.873 E0.06479
G1 X80.613 Y83.421 E0.09717
G1 X81.505 Y83.049 E0.12931
G1 X82.207 Y82.818 E0.15389
G1 X83.159 Y82.541 E0.18687
G1 X84.039 Y82.304 E0.21718
G1 X84.992 Y82.098 E0.24961
G1 X85.957 Y81.978 E0.28195
G1 X86.93 Y81.943 E0.31433
G1 X87.832 Y81.988 E0.34437
G1 X88.861 Y82.132 E0.37893
G1 X89.608 Y82.298 E0.40438
G1 X90.905 Y82.643 E0.44902
G1 X91.611 Y82.855 E0.47354
G1 X92.284 Y83.08 E0.49714
G1 X94.373 Y83.859 E0.57129
G1 X96.777 Y84.686 E0.65585
G1 X99.156 Y85.429 E0.73874
G1 X101.548 Y86.103 E0.8214
G1 X104.048 Y86.73 E0.90713
G1 X106.502 Y87.273 E0.99072
G1 X108.93 Y87.739 E1.07295
G1 X111.416 Y88.142 E1.15671
G1 X115.183 Y88.623 E1.28302
G1 X116.344 Y88.746 E1.32185
G1 X118.88 Y88.98 E1.40656
G1 X121.407 Y89.14 E1.49078
G1 X123.996 Y89.232 E1.57694
G1 X125.825 Y89.251 E1.63778
G1 X135.134 Y89.253 E1.9474
G1 X135.89 Y89.268 E1.97255
G1 X136.861 Y89.332 E2.00491
G1 X137.825 Y89.482 E2.03736
G1 X138.809 Y89.726 E2.07108
G1 X139.087 Y89.809 E2.08073
G1 X140.004 Y90.132 E2.11307
G1 X140.866 Y90.523 E2.14455
G1 X142.069 Y91.231 E2.19097
G1 X142.466 Y91.502 E2.20696
G1 X143.244 Y92.088 E2.23936
G1 X143.967 Y92.741 E2.27176
G1 X144.628 Y93.454 E2.3041
G1 X145.226 Y94.223 E2.3365
G1 X145.749 Y95.034 E2.36859
G1 X145.935 Y95.355 E2.38093
G1 X146.369 Y96.187 E2.41214
G1 X146.755 Y97.12 E2.44573
G1 X147.045 Y98.041 E2.47784
G1 X147.239 Y98.881 E2.50652
G1 X147.409 Y99.897 E2.54078
G1 X147.488 Y101.059 E2.57952
G1 X147.499 Y101.918 E2.60809
G1 X147.498 Y118.238 E3.15089
G1 X147.487 Y118.962 E3.17498
G1 X147.429 Y119.934 E3.20736
G1 X147.29 Y120.876 E3.23903
G1 X147.226 Y121.199 E3.24999
G1 X146.995 Y122.147 E3.28244
G1 X146.707 Y123.003 E3.31248
G1 X146.291 Y123.954 E3.347
G1 X145.924 Y124.633 E3.37267
G1 X145.721 Y124.978 E3.38599
G1 X145.19 Y125.794 E3.41837
G1 X144.584 Y126.564 E3.45096
G1 X143.815 Y127.372 E3.48806
G1 X143.522 Y127.648 E3.50145
G1 X142.785 Y128.283 E3.5338
G1 X141.994 Y128.851 E3.56619
G1 X141.186 Y129.33 E3.59743
G1 X140.276 Y129.765 E3.63098
G1 X139.359 Y130.106 E3.66352
G1 X138.345 Y130.382 E3.69847
G1 X137.847 Y130.49 E3.71542
G1 X136.876 Y130.655 E3.74818
G1 X135.674 Y130.739 E3.78826
G1 X134.884 Y130.749 E3.81453
G1 X126.193 Y130.75 E4.1036
G1 X123.614 Y130.787 E4.18938
G1 X121.038 Y130.897 E4.27514
G1 X118.575 Y131.072 E4.35727
G1 X115.87 Y131.342 E4.44768
G1 X114.934 Y131.45 E4.47902
G1 X112.301 Y131.791 E4.56733
G1 X109.791 Y132.188 E4.65185
G1 X107.39 Y132.638 E4.7331
G1 X104.856 Y133.187 E4.81933
G1 X102.488 Y133.769 E4.90044
G1 X100.028 Y134.451 E4.98534
G1 X97.612 Y135.194 E5.06941
G1 X95.248 Y135.996 E5.15244
G1 X93.522 Y136.64 E5.21371
G1 X92.642 Y136.958 E5.24483
G1 X92.044 Y137.154 E5.26577
G1 X90.827 Y137.51 E5.30794
G1 X90.094 Y137.703 E5.33315
G1 X89.143 Y137.907 E5.3655
G1 X88.177 Y138.027 E5.39788
G1 X87.274 Y138.061 E5.42793
G1 X86.231 Y138.007 E5.46267
G1 X85.267 Y137.869 E5.49506
G1 X84.35 Y137.655 E5.52638
G1 X83.289 Y137.355 E5.56305
G1 X82.56 Y137.132 E5.58841
G1 X81.675 Y136.816 E5.61966
G1 X80.682 Y136.356 E5.65606
G1 X80.014 Y136.003 E5.68119
G1 X79.176 Y135.509 E5.71354
G1 X78.409 Y134.962 E5.74488
G1 X77.503 Y134.173 E5.78484
G1 X76.742 Y133.427 E5.82028
G1 X76.212 Y132.88 E5.84561
G1 X75.612 Y132.205 E5.87565
G1 X74.989 Y131.365 E5.91043
G1 X74.501 Y130.564 E5.94163
G1 X74.083 Y129.725 E5.97281
G1 X73.628 Y128.519 E6.01568
G1 X73.327 Y127.538 E6.04981
G1 X73.131 Y126.832 E6.07418
G1 X72.916 Y125.883 E6.10654
G1 X72.786 Y124.934 E6.1384
G1 X72.751 Y124.438 E6.15494
G1 X72.699 Y123.294 E6.19303
G1 X72.604 Y121.837 E6.24159
G1 X72.599 Y121.598 E6.24954
G1 X72.526 Y120.333 E6.29168
G1 X72.5 Y119.348 E6.32446
G1 X72.51 Y117.657 E6.3807
G1 X72.538 Y116.968 E6.40364
G1 X72.572 Y116.493 E6.41948
G1 X72.72 Y113.873 E6.50676
G1 X72.792 Y111.339 E6.59107
G1 X72.792 Y108.845 E6.67402
G1 X72.692 Y105.695 E6.77884
G1 X72.603 Y104.345 E6.82384
G1 X72.597 Y104.077 E6.83276
G1 X72.526 Y102.847 E6.87374
G1 X72.5 Y101.856 E6.90671
G1 X72.51 Y100.154 E6.96332
G1 X72.528 Y99.634 E6.98062
G1 X72.654 Y97.323 E7.0576
G1 X72.722 Y95.62 E7.11429
G1 X72.807 Y94.649 E7.14671
G1 X72.962 Y93.759 E7.17676
G1 X73.107 Y93.166 E7.19706
G1 X73.427 Y92.023 E7.23654
G1 X73.649 Y91.301 E7.26166
G1 X73.967 Y90.418 E7.29288
G1 X74.391 Y89.503 E7.32642
G1 X74.878 Y88.659 E7.35883
G1 X75.439 Y87.86 E7.3913
G1 X76.061 Y87.122 E7.4234
G1 X76.93 Y86.19 E7.46578
G1 X77.45 Y85.661 E7.49045
G1 X78.163 Y84.998 E7.52284
G0 F9000 X78.409 Y85.313
G1 F1800 X79.149 Y84.736 E7.55405
G1 X79.937 Y84.227 E7.58525
G1 X80.768 Y83.79 E7.61648
G1 X81.63 Y83.429 E7.64756
G1 X82.319 Y83.202 E7.67169
G1 X83.263 Y82.927 E7.70439
G1 X84.124 Y82.695 E7.73405
G1 X85.042 Y82.495 E7.7653
G1 X85.972 Y82.378 E7.79647
G1 X86.91 Y82.343 E7.82769
G1 X87.812 Y82.388 E7.85773
G1 X88.774 Y82.523 E7.89004
G1 X89.505 Y82.685 E7.91494
G1 X90.79 Y83.026 E7.95916
G1 X91.484 Y83.234 E7.98326
G1 X92.144 Y83.455 E8.00641
G1 X94.233 Y84.234 E8.08056
G1 X96.658 Y85.068 E8.16586
G1 X99.037 Y85.811 E8.24875
G1 X101.451 Y86.491 E8.33217
G1 X103.962 Y87.121 E8.41827
G1 X106.416 Y87.664 E8.50186
G1 X108.862 Y88.133 E8.5847
G1 X111.362 Y88.539 E8.66894
G1 X115.134 Y89.02 E8.79541
G1 X116.302 Y89.144 E8.83448
G1 X118.851 Y89.379 E8.91962
G1 X121.393 Y89.54 E9.00434
G1 X123.982 Y89.632 E9.0905
G1 X125.821 Y89.651 E9.15167
G1 X135.126 Y89.653 E9.46116
G1 X135.864 Y89.667 E9.48571
G1 X136.8 Y89.727 E9.5169
G1 X137.729 Y89.87 E9.54816
G1 X138.694 Y90.109 E9.58123
G1 X138.955 Y90.187 E9.59029
G1 X139.84 Y90.497 E9.62148
G1 X140.663 Y90.868 E9.6515
G1 X141.866 Y91.576 E9.69793
G1 X142.226 Y91.822 E9.71243
G1 X142.976 Y92.385 E9.74363
G1 X143.674 Y93.013 E9.77485
G1 X144.313 Y93.7 E9.80606
G1 X144.89 Y94.44 E9.83727
G1 X145.403 Y95.235 E9.86874
G1 X145.58 Y95.54 E9.88047
G1 X146.014 Y96.372 E9.91168
G1 X146.374 Y97.24 E9.94293
G1 X146.655 Y98.131 E9.97401
G1 X146.849 Y98.971 E10.00268
G1 X147.01 Y99.924 E10.03483
G1 X147.088 Y101.064 E10.07283
G1 X147.099 Y101.918 E10.10124
G1 X147.098 Y118.232 E10.64384
G1 X147.088 Y118.939 E10.66736
G1 X147.033 Y119.876 E10.69858
G1 X146.897 Y120.799 E10.72961
G1 X146.837 Y121.105 E10.73998
G1 X146.616 Y122.019 E10.77126
G1 X146.328 Y122.875 E10.8013
G1 X145.939 Y123.764 E10.83357
G1 X145.579 Y124.431 E10.85878
G1 X145.386 Y124.76 E10.87147
G1 X144.875 Y125.547 E10.90268
G1 X144.294 Y126.288 E10.934
G1 X143.54 Y127.081 E10.97039
G1 X143.261 Y127.345 E10.98317
G1 X142.551 Y127.958 E11.01436
G1 X141.789 Y128.507 E11.0456
G1 X141.013 Y128.969 E11.07564
G1 X140.136 Y129.39 E11.10799
G1 X139.254 Y129.72 E11.13932
G1 X138.26 Y129.991 E11.17358
G1 X137.779 Y130.096 E11.18996
G1 X136.848 Y130.256 E11.22138
G1 X135.669 Y130.339 E11.26069
G1 X134.884 Y130.349 E11.2868
G1 X126.187 Y130.35 E11.57606
G1 X123.597 Y130.387 E11.66222
G1 X121.021 Y130.497 E11.74797
G1 X118.54 Y130.673 E11.8307
G1 X115.83 Y130.944 E11.92128
G1 X114.883 Y131.053 E11.95299
G1 X112.25 Y131.394 E12.04129
G1 X109.728 Y131.793 E12.12622
G1 X107.305 Y132.247 E12.20821
G1 X104.771 Y132.796 E12.29445
G1 X102.392 Y133.381 E12.37593
G1 X99.91 Y134.069 E12.46159
G1 X97.483 Y134.815 E12.54604
G1 X95.119 Y135.617 E12.62907
G1 X93.386 Y136.264 E12.6906
G1 X92.517 Y136.578 E12.72133
G1 X91.932 Y136.77 E12.74181
G1 X90.725 Y137.123 E12.78363
G1 X90.01 Y137.312 E12.80823
G1 X89.093 Y137.51 E12.83944
G1 X88.162 Y137.627 E12.87064
G1 X87.259 Y137.661 E12.9007
G1 X86.287 Y137.611 E12.93307
G1 X85.358 Y137.479 E12.96428
G1 X84.459 Y137.27 E12.99498
G1 X83.406 Y136.973 E13.03137
G1 X82.695 Y136.755 E13.0561
G1 X81.81 Y136.439 E13.08736
G1 X80.869 Y136.002 E13.12187
G1 X80.217 Y135.658 E13.14638
G1 X79.408 Y135.183 E13.17759
G1 X78.641 Y134.636 E13.20892
G1 X77.783 Y133.887 E13.2468
G1 X77.029 Y133.148 E13.28192
G1 X76.511 Y132.614 E13.30666
G1 X75.911 Y131.939 E13.3367
G1 X75.331 Y131.157 E13.36908
G1 X74.843 Y130.356 E13.40028
G1 X74.441 Y129.547 E13.43032
G1 X74.01 Y128.402 E13.47101
G1 X73.712 Y127.431 E13.5048
G1 X73.521 Y126.743 E13.52855
G1 X73.312 Y125.828 E13.55976
G1 X73.185 Y124.906 E13.59072
G1 X73.151 Y124.42 E13.60692
G1 X73.099 Y123.276 E13.64501
G1 X73.004 Y121.829 E13.69324
G1 X72.999 Y121.59 E13.70119
G1 X72.926 Y120.322 E13.74344
G1 X72.9 Y119.35 E13.77578
G1 X72.91 Y117.673 E13.83155
G1 X72.937 Y116.997 E13.85406
G1 X72.971 Y116.522 E13.8699
G1 X73.12 Y113.884 E13.95778
G1 X73.192 Y111.35 E14.04209
G1 X73.192 Y108.845 E14.12541
G1 X73.092 Y105.682 E14.23066
G1 X73.003 Y104.336 E14.27553
G1 X72.997 Y104.068 E14.28444
G1 X72.926 Y102.836 E14.32549
G1 X72.9 Y101.858 E14.35803
G1 X72.91 Y100.167 E14.41427
G1 X72.927 Y99.656 E14.43128
G1 X73.054 Y97.339 E14.50846
G1 X73.121 Y95.654 E14.56454
G1 X73.201 Y94.718 E14.59579
G1 X73.356 Y93.828 E14.62584
G1 X73.492 Y93.274 E14.64481
G1 X73.809 Y92.141 E14.68394
G1 X74.026 Y91.436 E14.70847
G1 X74.33 Y90.586 E14.7385
G1 X74.738 Y89.702 E14.77088
G1 X75.206 Y88.888 E14.80211
G1 X75.745 Y88.118 E14.83337
G1 X76.367 Y87.38 E14.86547
G1 X77.216 Y86.47 E14.90687
G1 X77.723 Y85.953 E14.93095
G1 X78.409 Y85.313 E14.96216
G0 F9000 X78.655 Y85.628
G1 F1800 X79.366 Y85.072 E14.99218
G1 X80.124 Y84.581 E15.02221
G1 X80.923 Y84.159 E15.05227
G1 X81.755 Y83.809 E15.08229
G1 X82.431 Y83.586 E15.10596
G1 X83.367 Y83.313 E15.13839
G1 X84.21 Y83.086 E15.16743
G1 X85.092 Y82.892 E15.19747
G1 X85.988 Y82.778 E15.22751
G1 X86.89 Y82.743 E15.25753
G1 X87.792 Y82.788 E15.28757
G1 X88.687 Y82.913 E15.31763
G1 X89.402 Y83.072 E15.34199
G1 X90.687 Y83.413 E15.38621
G1 X91.357 Y83.613 E15.40946
G1 X92.004 Y83.83 E15.43216
G1 X94.093 Y84.609 E15.50631
G1 X96.539 Y85.45 E15.59234
G1 X98.918 Y86.193 E15.67524
G1 X101.354 Y86.879 E15.75941
G1 X103.876 Y87.512 E15.8459
G1 X106.33 Y88.055 E15.92949
G1 X108.794 Y88.527 E16.01293
G1 X111.308 Y88.936 E16.09765
G1 X115.085 Y89.417 E16.22429
G1 X116.26 Y89.542 E16.26359
G1 X118.822 Y89.778 E16.34916
G1 X121.379 Y89.94 E16.43438
G1 X123.968 Y90.032 E16.52054
G1 X125.817 Y90.051 E16.58204
G1 X135.119 Y90.053 E16.89143
G1 X135.839 Y90.066 E16.91538
G1 X136.74 Y90.122 E16.94541
G1 X137.633 Y90.258 E16.97545
G1 X138.579 Y90.492 E17.00786
G1 X138.823 Y90.565 E17.01633
G1 X139.676 Y90.862 E17.04637
G1 X140.499 Y91.233 E17.0764
G1 X141.641 Y91.907 E17.1205
G1 X141.986 Y92.142 E17.13439
G1 X142.709 Y92.683 E17.16442
G1 X143.382 Y93.286 E17.19448
G1 X143.998 Y93.946 E17.2245
G1 X144.554 Y94.657 E17.25452
G1 X145.057 Y95.436 E17.28537
G1 X145.226 Y95.726 E17.29653
G1 X145.645 Y96.526 E17.32657
G1 X145.993 Y97.36 E17.35662
G1 X146.265 Y98.221 E17.38666
G1 X146.459 Y99.061 E17.41533
G1 X146.611 Y99.952 E17.44539
G1 X146.688 Y101.069 E17.48263
G1 X146.699 Y101.918 E17.51087
G1 X146.698 Y118.227 E18.05331
G1 X146.689 Y118.916 E18.07623
G1 X146.637 Y119.818 E18.10628
G1 X146.504 Y120.723 E18.1367
G1 X146.448 Y121.012 E18.1465
G1 X146.237 Y121.891 E18.17656
G1 X145.949 Y122.747 E18.2066
G1 X145.587 Y123.574 E18.23663
G1 X145.234 Y124.229 E18.26137
G1 X145.05 Y124.543 E18.27348
G1 X144.56 Y125.301 E18.3035
G1 X144.004 Y126.013 E18.33355
G1 X143.265 Y126.791 E18.36923
G1 X142.999 Y127.043 E18.38142
G1 X142.317 Y127.634 E18.41144
G1 X141.584 Y128.163 E18.4415
G1 X140.808 Y128.625 E18.47154
G1 X139.995 Y129.016 E18.50155
G1 X139.149 Y129.334 E18.53161
G1 X138.174 Y129.6 E18.56522
G1 X137.71 Y129.702 E18.58102
G1 X136.82 Y129.857 E18.61107
G1 X135.664 Y129.939 E18.64961
G1 X134.884 Y129.949 E18.67556
G1 X126.181 Y129.95 E18.96502
G1 X123.58 Y129.987 E19.05154
G1 X121.004 Y130.097 E19.1373
G1 X118.505 Y130.274 E19.22062
G1 X115.79 Y130.546 E19.31137
G1 X114.832 Y130.656 E19.34345
G1 X112.199 Y130.997 E19.43175
G1 X109.665 Y131.398 E19.51708
G1 X107.22 Y131.856 E19.59982
G1 X104.686 Y132.405 E19.68605
G1 X102.296 Y132.993 E19.76792
G1 X99.792 Y133.687 E19.85434
G1 X97.355 Y134.436 E19.93914
G1 X94.979 Y135.242 E20.02259
G1 X93.25 Y135.888 E20.08397
G1 X92.392 Y136.198 E20.11432
G1 X91.82 Y136.386 E20.13434
G1 X90.623 Y136.736 E20.17582
G1 X89.925 Y136.921 E20.19984
G1 X89.043 Y137.113 E20.22986
G1 X88.147 Y137.227 E20.2599
G1 X87.244 Y137.261 E20.28996
G1 X86.343 Y137.215 E20.31997
G1 X85.448 Y137.089 E20.35003
G1 X84.568 Y136.885 E20.38007
G1 X83.523 Y136.59 E20.41619
G1 X82.829 Y136.378 E20.44032
G1 X81.978 Y136.076 E20.47036
G1 X81.055 Y135.648 E20.5042
G1 X80.419 Y135.313 E20.5281
G1 X79.64 Y134.857 E20.55813
G1 X78.904 Y134.334 E20.58816
G1 X78.063 Y133.601 E20.62526
G1 X77.316 Y132.869 E20.66005
G1 X76.81 Y132.348 E20.6842
G1 X76.21 Y131.673 E20.71424
G1 X75.672 Y130.948 E20.74427
G1 X75.201 Y130.178 E20.77429
G1 X74.799 Y129.369 E20.80434
G1 X74.392 Y128.285 E20.84285
G1 X74.097 Y127.324 E20.87628
G1 X73.911 Y126.653 E20.89944
G1 X73.708 Y125.773 E20.92948
G1 X73.584 Y124.878 E20.95953
G1 X73.551 Y124.401 E20.97544
G1 X73.498 Y123.257 E21.01353
G1 X73.404 Y121.821 E21.06139
G1 X73.399 Y121.582 E21.06934
G1 X73.326 Y120.311 E21.11168
G1 X73.3 Y119.352 E21.14359
G1 X73.31 Y117.689 E21.1989
G1 X73.336 Y117.026 E21.22097
G1 X73.37 Y116.551 E21.23681
G1 X73.52 Y113.895 E21.32529
G1 X73.592 Y111.361 E21.40961
G1 X73.592 Y108.845 E21.49329
G1 X73.492 Y105.669 E21.59898
G1 X73.403 Y104.327 E21.64371
G1 X73.397 Y104.059 E21.65263
G1 X73.326 Y102.825 E21.69374
G1 X73.3 Y101.86 E21.72584
G1 X73.31 Y100.18 E21.78172
G1 X73.326 Y99.678 E21.79843
G1 X73.454 Y97.355 E21.87581
G1 X73.52 Y95.687 E21.93133
G1 X73.595 Y94.787 E21.96137
G1 X73.75 Y93.897 E21.99141
G1 X73.877 Y93.382 E22.00906
G1 X74.191 Y92.259 E22.04784
G1 X74.403 Y91.571 E22.07178
G1 X74.707 Y90.721 E22.10181
G1 X75.085 Y89.901 E22.13184
G1 X75.534 Y89.117 E22.16189
G1 X76.051 Y88.376 E22.19194
G1 X76.673 Y87.638 E22.22404
G1 X77.502 Y86.75 E22.26445
G1 X77.996 Y86.245 E22.28794
G1 X78.655 Y85.628 E22.31797
G1 F2400 E21.51797
G0 F9000 X85.385 Y93.549
G1 F2400 E22.31797
G1 F1800 X86.851 Y93.137 E22.36862
G1 X88.317 Y93.549 E22.41927
G1 X89.381 Y94.67 E22.47067
G1 X89.789 Y96.073 E22.51927
G1 X89.378 Y97.543 E22.57004
G1 X88.319 Y98.602 E22.61985
G1 X86.849 Y99.013 E22.67062
G1 X85.446 Y98.603 E22.71923
G1 X84.323 Y97.48 E22.77205
G1 X83.91 Y96.075 E22.82076
G1 X84.321 Y94.67 E22.86945
G1 X85.385 Y93.549 E22.92086
G0 F9000 X85.599 Y93.904
G1 F1800 X86.851 Y93.553 E22.9641
G1 X88.103 Y93.904 E23.00735
G1 X89.023 Y94.874 E23.05182
G1 X89.373 Y96.075 E23.09342
G1 X89.021 Y97.334 E23.1369
G1 X88.11 Y98.245 E23.17975
G1 X86.852 Y98.597 E23.2232
G1 X85.657 Y98.248 E23.26461
G1 X84.678 Y97.269 E23.31066
G1 X84.327 Y96.074 E23.35208
G1 X84.678 Y94.874 E23.39367
G1 X85.599 Y93.904 E23.43816
G0 F9000 X85.812 Y94.26
G1 F1800 X86.851 Y93.968 E23.47405
G1 X87.89 Y94.26 E23.50995
G1 X88.667 Y95.079 E23.5475
G1 X88.957 Y96.078 E23.58209
G1 X88.665 Y97.124 E23.61821
G1 X87.9 Y97.889 E23.6542
G1 X86.855 Y98.181 E23.69029
G1 X85.868 Y97.893 E23.72448
G1 X85.034 Y97.059 E23.76371
G1 X84.744 Y96.074 E23.79786
G1 X85.036 Y95.078 E23.83238
G1 X85.812 Y94.26 E23.86989
G0 F9000 X86.029 Y94.615
G1 F1800 X86.851 Y94.383 E23.89829
G1 X87.673 Y94.615 E23.9267
G1 X88.31 Y95.286 E23.95747
G1 X88.541 Y96.08 E23.98498
G1 X88.308 Y96.915 E24.01381
G1 X87.691 Y97.532 E24.04283
G1 X86.858 Y97.765 E24.0716
G1 X86.079 Y97.538 E24.09859
